X: 36064
T: Scartaglen, The
R: reel
M: 4/4
K: Dmajor
DFEF D2Ad|cAGD EFGE|DFEF D2Ad|cAGB ADD2|
DFEF D2Ad|cAGD EFGB|Addc dged|cAGE EDD2||
f2fe fage|fdff afge|f2fe fage|(3fga ec Add2|
[f4g4] fage|fdge afge|fage dged|dcAG EFGE||

